X:1
T: Fisher's Hornpipe
P:O'Neill's version
R:Reel
Q: 232
K:D
M:4/4
L:1/8
|:((3ABc)|dA FA GB AG|FA DF GB AG|FA df gf ed|ce A2 A2 Bc|
dA FA GB AG|FA DF GB AG|FA dA BG EC|D2 DD D2:|
|:cd|ed cd ef ge|fe de fg af|ed cB Ag fe|dc Bc A2 dc|
BG ((3GGG) Bc dB|AF ((3FFF) AB cA|Bc dA BG EC|D2 DD D2:|
